X: 101
T: Miss Preston of Fernton's Strathspey
R: strathspey
B: William Shepherd "1st Collection" 1793 p.10 #1
F: http://imslp.org/wiki/File:PMLP73094-Shepherd_Collections_HMT.pdf
C: William Shepherd (17??-1812)
Z: 2012 John Chambers <jc:trillian.mit.edu>
M: C|
L: 1/8
K: A
A |\
A,>CE>C A,/A,/A, A>E | A>B {d}cB/A/ G<BBc |\
A,>CE>C A,/A,/A, A>E | (3FGA (3Bcd c<A A :|
c/d/ |\
e>cA>c e>ca>c | d>B {d}cB/A/ G<B Bc/d/ |\
e>cA>c e>ae>c | d<f {A}GF E>A A ||
c/d/ |\
e>cA>c e>ca>c | d>B {d}cB/A/ G<B Bc/d/ |\
A<cF<A E<AC<E | (3FGA (3Bcd cA A |]
